X: 11
T: The Frost Is All Over
R: jig
M: 6/8
L: 1/8
K: Dmaj
def edB|AFD EFE|DFA AFA|Bcd ecA|
def edB|AFD EFE|DFA AFA|Bdc D3:|
f3 afd|g3 bag|f3 afd|gfg e2g|
f3 afd|g3 bag|fga efg|fdc d3:|


Tune 448	Setting 13321

